assets/Man with veil/Medium-Light/Flat/man_with_veil_flat_medium-light.svg

<svg width="32" height="32" viewBox="0 0 32 32" fill="none" xmlns="http://www.w3.org/2000/svg">
<path d="M27 16.9999C27 8.03994 22.598 5.18994 22.598 5.18994L16 11.6899L9.40199 5.19C9.40199 5.19 5 8.04 5 17V30L27 29.9999V16.9999Z" fill="#E6E6E6"/>
<path d="M21.85 12H10.13V22.56H21.85V12Z" fill="#D3D3D3"/>
<path d="M8.97485 20.5368C10.2567 19.4723 11.7844 18.6941 13.4601 18.3002C13.7401 18.2402 13.9401 17.9802 13.9401 17.6902V14.7302C13.9401 13.6002 14.8401 12.6902 15.9601 12.6702C17.1201 12.6502 18.0601 13.6202 18.0601 14.7702V17.6902C18.0601 17.9802 18.2601 18.2302 18.5401 18.3002C20.1333 18.678 21.5928 19.4012 22.8344 20.3863C21.3064 21.9645 18.739 23 15.8294 23C13.0133 23 10.5177 22.03 8.97485 20.5368Z" fill="#E4B29A"/>
<path d="M27 28.9998C27 25.5798 25.44 22.5198 22.99 20.5098C21.46 22.5098 19.09 23.6798 16.58 23.6798H16H15.43C12.91 23.6798 10.54 22.5098 9.02 20.5098C6.57 22.5198 5 25.5698 5 28.9998V29.9998H27V28.9998Z" fill="#F4F4F4"/>
<path d="M8.71426 20.0965C9.09736 19.6987 9.73042 19.6868 10.1282 20.0699L10.1313 20.0729C10.3667 20.2992 10.4672 20.613 10.4309 20.914C10.7143 20.8053 11.0435 20.8264 11.3206 20.9999L11.328 21.0044C11.6059 21.178 11.7691 21.4658 11.7948 21.769C12.051 21.6043 12.3789 21.5583 12.6861 21.6731L12.6943 21.6761C13.002 21.7907 13.2199 22.0407 13.3054 22.3334C13.5241 22.1207 13.837 22.0105 14.1613 22.0624L14.1699 22.0638C14.4944 22.1154 14.7574 22.3177 14.899 22.588C15.0716 22.3364 15.3568 22.1666 15.6851 22.1538L15.6911 22.1536C15.7938 22.1495 15.8934 22.1611 15.9878 22.1861C16.0798 22.1537 16.1782 22.1343 16.2809 22.1302L16.2842 22.1301C16.3869 22.126 16.4865 22.1376 16.5809 22.1626C16.6729 22.1302 16.7713 22.1108 16.874 22.1067L16.8795 22.1065C17.1547 22.0955 17.4084 22.1967 17.5963 22.3694C17.7344 22.1548 17.9543 21.9927 18.2233 21.9338L18.2309 21.9321C18.4997 21.873 18.7671 21.9281 18.9824 22.065C19.0806 21.8296 19.2683 21.6315 19.5225 21.5261L19.5297 21.5232C19.7835 21.4177 20.0559 21.4246 20.2917 21.521C20.3465 21.2724 20.4955 21.0446 20.7262 20.8957L20.7327 20.8915C20.9628 20.7428 21.2311 20.7005 21.4796 20.7523C21.4883 20.4989 21.5928 20.2486 21.7915 20.0605L21.7943 20.0579C22.1951 19.678 22.828 19.6949 23.208 20.0957C23.5879 20.4966 23.571 21.1295 23.1701 21.5094L23.1666 21.5128C22.9196 21.7466 22.5847 21.8299 22.2752 21.7658C22.264 22.0814 22.1039 22.3866 21.8186 22.5711L21.8104 22.5764C21.5254 22.7602 21.182 22.7808 20.8901 22.6618C20.822 22.9694 20.6101 23.24 20.2971 23.3701L20.2881 23.3738C19.9753 23.5034 19.6344 23.4625 19.3687 23.2939C19.2473 23.5841 18.9912 23.8127 18.6606 23.8854L18.6511 23.8875C18.3205 23.9599 17.9923 23.8597 17.7605 23.6471C17.59 23.9114 17.2979 24.0913 16.9597 24.1049L16.9532 24.1051C16.8505 24.1092 16.7509 24.0977 16.6565 24.0726C16.5645 24.105 16.4661 24.1244 16.3634 24.1285L16.36 24.1286C16.2574 24.1327 16.1578 24.1212 16.0634 24.0961C15.9714 24.1285 15.873 24.1479 15.7703 24.152L15.7632 24.1523C15.3646 24.1679 15.0115 23.948 14.8379 23.6168C14.6263 23.9251 14.2496 24.1016 13.8557 24.039L13.8449 24.0372C13.451 23.9741 13.148 23.689 13.0429 23.3301C12.7746 23.5908 12.3703 23.6896 11.9964 23.5504L11.9862 23.5466C11.6121 23.4068 11.3711 23.0669 11.3394 22.6938C11.0241 22.8963 10.6075 22.9125 10.2685 22.7008L10.2592 22.695C9.91998 22.4826 9.75208 22.1 9.79693 21.7273C9.44605 21.8618 9.03362 21.7921 8.74486 21.5143L8.74089 21.5105C8.34308 21.1274 8.33116 20.4943 8.71426 20.0965Z" fill="#E4B29A"/>
<path d="M23.6212 24C22.7412 24.01 22.0112 24.75 22.0112 25.65V25.7469C21.946 25.7545 21.8811 25.7659 21.8168 25.7812C21.6952 25.3044 21.2025 24.9134 20.5613 24.92L12.1613 25.02C11.5639 25.0262 11.1068 25.3737 10.9606 25.8057C10.9046 25.7933 10.8481 25.7838 10.7913 25.7772V25.6798C10.7913 24.7798 10.0613 24.0398 9.18129 24.0298H8.09129C8.04129 24.0298 7.99129 24.0798 8.00129 24.1298C8.05066 25.1172 8.86045 25.9193 9.86274 25.9394C9.72092 26.0109 9.58857 26.1045 9.47126 26.2199L8.70126 26.9899C8.66126 27.0299 8.66126 27.0899 8.70126 27.1299C9.45126 27.7999 10.6113 27.7899 11.3213 27.0699L11.3574 27.0338L13.4949 30H19.3461L21.4049 26.9633L21.4812 27.0397C22.1912 27.7597 23.3512 27.7697 24.1012 27.0997C24.1412 27.0597 24.1412 26.9997 24.1012 26.9597L23.3312 26.1897C23.2142 26.0745 23.0822 25.9811 22.9407 25.9096C23.9426 25.889 24.7519 25.0871 24.8012 24.1C24.8112 24.05 24.7612 24 24.7112 24H23.6212Z" fill="#44911B"/>
<path d="M14.0601 25.2334L11.3501 26.3534L10.6901 24.7434C10.2801 23.7334 10.2801 22.6034 10.7101 21.5934C10.7901 21.4134 11.0001 21.3234 11.1801 21.4034C12.1801 21.8134 12.9801 22.6134 13.3901 23.6134L14.0601 25.2334Z" fill="#F70A8D"/>
<path d="M18.23 25.3335L20.94 26.4535L21.6 24.8435C22.01 23.8335 22.01 22.7035 21.58 21.6935C21.5 21.5135 21.29 21.4235 21.11 21.5035C20.11 21.9135 19.31 22.7135 18.9 23.7135L18.23 25.3335Z" fill="#F70A8D"/>
<path d="M8.63418 22.2558C8.51219 22.3145 8.46137 22.4809 8.53252 22.6375L9.26443 24.3504C9.46774 24.8202 9.86419 25.476 10.1996 25.7893C11.0129 26.5821 11.9989 26.6702 12.9341 26.2982C13.9507 25.8969 14.5911 25.0356 14.4894 23.8121C14.4691 23.5184 14.2963 22.9703 14.1946 22.6767C14.1743 22.6228 14.154 22.5714 14.1337 22.5201C14.1133 22.4687 14.093 22.4173 14.0727 22.3634L13.3712 20.7191C13.3001 20.5624 13.1476 20.4744 13.0155 20.5233C12.1209 20.8757 11.8871 22.4417 12.0802 23.8121C12.1107 24.047 11.8668 24.1547 11.7143 23.9589C10.8502 22.8528 9.52873 21.8936 8.63418 22.2558Z" fill="#FF6DC6"/>
<path d="M23.3658 22.3559C23.4878 22.4146 23.5386 22.581 23.4675 22.7376L22.7356 24.4505C22.5323 24.9203 22.1358 25.5761 21.8004 25.8894C20.9871 26.6822 20.0011 26.7703 19.0659 26.3983C18.0493 25.997 17.4089 25.1357 17.5106 23.9122C17.5309 23.6185 17.7037 23.0704 17.8054 22.7768C17.8257 22.7229 17.846 22.6715 17.8664 22.6201C17.8867 22.5687 17.907 22.5174 17.9273 22.4635L18.6288 20.8192C18.6999 20.6625 18.8524 20.5745 18.9845 20.6234C19.8791 20.9758 20.1129 22.5418 19.9198 23.9122C19.8893 24.1471 20.1332 24.2548 20.2857 24.059C21.1498 22.9529 22.4713 21.9937 23.3658 22.3559Z" fill="#FF6DC6"/>
<path d="M12.7794 23.1586C12.9297 22.481 13.621 22.0866 14.2823 22.299L14.8734 22.4911L14.8233 21.8944C14.7632 21.2168 15.2841 20.6201 15.9654 20.61C16.6567 20.5999 17.2077 21.1865 17.1476 21.8742L17.1075 22.4406L17.6786 22.2282C18.3198 21.9855 19.0311 22.3597 19.2115 23.0373C19.3818 23.6947 18.971 24.3723 18.2998 24.4936L17.7788 24.5948L18.2196 25.1207C18.6605 25.6466 18.5603 26.4557 17.9992 26.8501C17.4382 27.2446 16.6767 27.0726 16.3261 26.486L16.0556 26.0613L15.8452 26.4962C15.5246 27.0929 14.7632 27.2951 14.1921 26.9209C13.611 26.5467 13.4808 25.7477 13.9015 25.2016L14.3123 24.6656L13.7412 24.5847C13.07 24.4835 12.6292 23.8261 12.7794 23.1586Z" fill="#FFF478"/>
<path d="M16.0601 25C16.6123 25 17.0601 24.5523 17.0601 24C17.0601 23.4477 16.6123 23 16.0601 23C15.5078 23 15.0601 23.4477 15.0601 24C15.0601 24.5523 15.5078 25 16.0601 25Z" fill="#FFB02E"/>
<path d="M12.7701 10.5899C12.7701 11.5122 12.0224 12.2599 11.1001 12.2599C10.1777 12.2599 9.43005 11.5122 9.43005 10.5899C9.43005 9.66761 10.1777 8.91992 11.1001 8.91992C12.0224 8.91992 12.7701 9.66761 12.7701 10.5899Z" fill="#E4B29A"/>
<path d="M22.56 10.5899C22.56 11.5122 21.8123 12.2599 20.89 12.2599C19.9677 12.2599 19.22 11.5122 19.22 10.5899C19.22 9.66761 19.9677 8.91992 20.89 8.91992C21.8123 8.91992 22.56 9.66761 22.56 10.5899Z" fill="#E4B29A"/>
<path d="M15.5553 3C12.7685 3 10.5647 5.40719 10.7623 8.24748L11.1576 13.9381C11.3256 15.7209 12.7092 17 14.3892 17H17.6108C19.2908 17 20.6744 15.7209 20.8424 13.9381L21.2377 8.24748C21.4353 5.41727 19.2315 3 16.4447 3H15.5553V3Z" fill="#EEBFAA"/>
<path d="M12.3099 10.5016C12.4599 9.89164 13.0199 9.43164 13.6799 9.43164C14.3699 9.43164 14.9399 9.92164 15.0699 10.5716C15.0999 10.7116 14.9899 10.8416 14.8399 10.8416H12.5799C12.3999 10.8416 12.2599 10.6716 12.3099 10.5016Z" fill="white"/>
<path d="M19.9 10.5016C19.75 9.89164 19.19 9.43164 18.53 9.43164C17.84 9.43164 17.27 9.92164 17.14 10.5716C17.11 10.7116 17.22 10.8416 17.37 10.8416H19.63C19.81 10.8416 19.94 10.6816 19.9 10.5016Z" fill="white"/>
<path d="M12.98 10.6117C12.98 10.1117 13.39 9.70166 13.89 9.70166C14.39 9.70166 14.79 10.1017 14.79 10.6017C14.79 10.6917 14.78 10.7717 14.76 10.8517H13.01C12.99 10.7717 12.98 10.6917 12.98 10.6117Z" fill="#7D4533"/>
<path d="M19.2299 10.6117C19.2299 10.1117 18.8199 9.70166 18.3199 9.70166C17.8199 9.70166 17.4199 10.1017 17.4199 10.6117C17.4199 10.6917 17.4299 10.7717 17.4499 10.8517H19.1999C19.2199 10.7717 19.2299 10.6917 19.2299 10.6117Z" fill="#7D4533"/>
<path d="M13.89 10.0815C14.18 10.0815 14.41 10.3115 14.41 10.6015C14.41 10.6915 14.38 10.7715 14.35 10.8415H13.43C13.39 10.7715 13.37 10.6915 13.37 10.6015C13.37 10.3115 13.6 10.0815 13.89 10.0815Z" fill="black"/>
<path d="M18.3199 10.0815C18.0299 10.0815 17.7999 10.3115 17.7999 10.6015C17.7999 10.6915 17.8299 10.7715 17.8599 10.8415H18.7799C18.8199 10.7715 18.8399 10.6915 18.8399 10.6015C18.8399 10.3115 18.6099 10.0815 18.3199 10.0815Z" fill="black"/>
<path d="M13.7399 10.2518C13.7399 10.3402 13.6683 10.4118 13.5799 10.4118C13.4916 10.4118 13.4199 10.3402 13.4199 10.2518C13.4199 10.1634 13.4916 10.0918 13.5799 10.0918C13.6683 10.0918 13.7399 10.1634 13.7399 10.2518Z" fill="white"/>
<path d="M18.2 10.2518C18.2 10.3402 18.1284 10.4118 18.04 10.4118C17.9516 10.4118 17.88 10.3402 17.88 10.2518C17.88 10.1634 17.9516 10.0918 18.04 10.0918C18.1284 10.0918 18.2 10.1634 18.2 10.2518Z" fill="white"/>
<path d="M21.183 4.3917L20.7647 4.1817C20.4729 4.0317 20.2005 3.8317 19.967 3.5917L19.1499 2.7517C18.537 2.1217 17.6323 1.9117 16.8151 2.2017C16.2898 2.3917 15.7061 2.3917 15.1808 2.2017C14.4707 1.8317 13.6049 1.9817 13.0309 2.5617L12.0386 3.5817C11.8052 3.8217 11.5328 4.0217 11.2312 4.1817L10.8226 4.3917C10.0541 4.7917 9.62608 5.6617 9.78173 6.5317L10.3362 9.6617C10.3946 9.9717 10.6573 10.2017 10.9588 10.2117C10.9588 10.2117 10.9005 9.3217 10.8615 8.7517C10.8421 8.4617 10.9588 8.1717 11.1728 7.9717L11.3577 7.8017C11.6106 7.5717 11.7468 7.2417 11.7468 6.9017V6.0217C11.7468 5.7717 11.9122 5.5517 12.1457 5.4917C12.778 5.3317 14.1302 5.0517 15.998 5.0517C17.8658 5.0517 19.218 5.3317 19.8503 5.4917C20.0837 5.5517 20.2491 5.7717 20.2491 6.0217V6.9017C20.2491 7.2417 20.395 7.5717 20.6382 7.8017L20.8328 7.9817C21.0468 8.1817 21.1636 8.4617 21.1441 8.7617C21.1052 9.3317 21.0468 10.2117 21.0468 10.2117C21.3484 10.1917 21.6013 9.9717 21.6597 9.6617L22.2142 6.5317C22.3796 5.6617 21.9613 4.7917 21.183 4.3917Z" fill="#FFF9BA"/>
<path d="M19.24 8.93176C19.35 9.00177 19.46 9.04177 19.58 9.04177C19.75 9.04177 19.91 8.97177 20.01 8.82177C20.2 8.58177 20.15 8.23177 19.91 8.04177C19.88 8.01177 19.04 7.37177 17.82 7.52177C17.51 7.56177 17.29 7.84177 17.33 8.14176C17.37 8.45177 17.64 8.67177 17.95 8.63177C18.6767 8.54456 19.1781 8.88922 19.2358 8.92891C19.2377 8.93018 19.24 8.93176 19.24 8.93176Z" fill="#A56953"/>
<path d="M12.19 8.82174C12.29 8.96174 12.46 9.04173 12.63 9.04173C12.74 9.04173 12.86 9.00173 12.96 8.93173C12.98 8.91173 13.49 8.54174 14.25 8.63174C14.56 8.66174 14.83 8.44173 14.87 8.14173C14.9 7.83173 14.68 7.56173 14.38 7.52173C13.17 7.38173 12.32 8.01173 12.29 8.04173C12.05 8.23173 12 8.57174 12.19 8.82174Z" fill="#A56953"/>
<path d="M15.6541 10.2897L15.1583 12.0282C15.0554 12.384 15.2986 12.75 15.6447 12.75H16.3743C16.7204 12.75 16.9636 12.384 16.8607 12.0282L16.365 10.2897C16.2621 9.90342 15.7663 9.90342 15.6541 10.2897Z" fill="#D19479"/>
<path d="M16.0005 13.7057C15.45 13.7057 14.9301 13.5669 14.4918 13.3212C14.3389 13.2358 14.186 13.4174 14.2777 13.5669C14.6447 14.1542 15.2767 14.5493 16.0005 14.5493C16.7243 14.5493 17.3563 14.1542 17.7233 13.5669C17.8151 13.4174 17.652 13.2465 17.5093 13.3212C17.0607 13.5669 16.551 13.7057 16.0005 13.7057Z" fill="#990838"/>
<path d="M8.99214 7.31C8.83381 7.31 8.67549 7.26 8.53695 7.15C8.21041 6.9 8.15103 6.42 8.40831 6.1C8.50727 5.97 10.8624 3 15.998 3C21.1337 3 23.4888 5.97 23.5878 6.1C23.8451 6.43 23.7857 6.9 23.4591 7.15C23.1326 7.4 22.6675 7.35 22.4201 7.02C22.4102 7 21.8957 6.37 20.8666 5.76C19.4713 4.93 17.8386 4.5 15.998 4.5C14.1575 4.5 12.5248 4.93 11.1295 5.76C10.0905 6.38 9.57596 7.02 9.57596 7.02C9.42753 7.21 9.20984 7.31 8.99214 7.31Z" fill="#D3D3D3"/>
</svg>

<svg xmlns="http://www.w3.org/2000/svg" width="32" height="32" fill="none"><path fill="#E6E6E6" d="M27 17c0-8.96-4.402-11.81-4.402-11.81L16 11.69l-6.598-6.5S5 8.04 5 17v13h22V17Z"/><path fill="#D3D3D3" d="M21.85 12H10.13v10.56h11.72V12Z"/><path fill="#E4B29A" d="M8.975 20.537A10.937 10.937 0 0 1 13.46 18.3c.28-.06.48-.32.48-.61v-2.96c0-1.13.9-2.04 2.02-2.06 1.16-.02 2.1.95 2.1 2.1v2.92c0 .29.2.54.48.61a10.986 10.986 0 0 1 4.294 2.086C21.306 21.965 18.74 23 15.83 23c-2.816 0-5.311-.97-6.854-2.463Z"/><path fill="#F4F4F4" d="M27 29c0-3.42-1.56-6.48-4.01-8.49-1.53 2-3.9 3.17-6.41 3.17h-1.15c-2.52 0-4.89-1.17-6.41-3.17A10.949 10.949 0 0 0 5 29v1h22v-1Z"/><path fill="#E4B29A" d="M8.714 20.096a1 1 0 0 1 1.414-.026l.003.003c.236.226.336.54.3.841a.999.999 0 0 1 .89.086l.007.004a.999.999 0 0 1 .467.765.998.998 0 0 1 .891-.096l.008.003a.998.998 0 0 1 .611.657.999.999 0 0 1 .856-.27h.009a.998.998 0 0 1 .729.525.999.999 0 0 1 .786-.434h.006a1 1 0 0 1 .297.032c.092-.032.19-.052.293-.056h.003a1 1 0 0 1 .297.033c.092-.033.19-.052.293-.056h.006a.997.997 0 0 1 .716.262.997.997 0 0 1 .627-.435l.008-.002a.997.997 0 0 1 .751.133.997.997 0 0 1 .54-.539l.008-.003a.996.996 0 0 1 .762-.002.997.997 0 0 1 .434-.625l.007-.005a.997.997 0 0 1 .747-.139.997.997 0 0 1 .311-.691l.003-.003a1 1 0 0 1 1.376 1.451l-.003.004a1 1 0 0 1-.892.253 1 1 0 0 1-.456.805l-.009.005a.999.999 0 0 1-.92.086 1 1 0 0 1-.593.708l-.009.004a.999.999 0 0 1-.92-.08.999.999 0 0 1-.707.591l-.01.002a.999.999 0 0 1-.89-.24.999.999 0 0 1-.801.458h-.007a.998.998 0 0 1-.296-.032c-.093.032-.19.051-.294.055h-.003a.997.997 0 0 1-.297-.032c-.092.032-.19.052-.293.056h-.007a1 1 0 0 1-.925-.535 1 1 0 0 1-.982.422l-.011-.002a1 1 0 0 1-.802-.707 1 1 0 0 1-1.047.22l-.01-.003a1 1 0 0 1-.647-.853 1 1 0 0 1-1.07.007l-.01-.006a1 1 0 0 1-.462-.968 1 1 0 0 1-1.052-.213l-.004-.003a1 1 0 0 1-.027-1.415Z"/><path fill="#44911B" d="M23.621 24c-.88.01-1.61.75-1.61 1.65v.097a1.68 1.68 0 0 0-.194.034c-.122-.477-.614-.868-1.256-.861l-8.4.1c-.597.006-1.054.354-1.2.786a1.68 1.68 0 0 0-.17-.029v-.097c0-.9-.73-1.64-1.61-1.65h-1.09c-.05 0-.1.05-.09.1.05.987.86 1.79 1.862 1.81a1.557 1.557 0 0 0-.392.28l-.77.77c-.04.04-.04.1 0 .14.75.67 1.91.66 2.62-.06l.036-.036L13.495 30h5.851l2.059-3.037.076.077c.71.72 1.87.73 2.62.06.04-.04.04-.1 0-.14l-.77-.77a1.555 1.555 0 0 0-.39-.28 1.91 1.91 0 0 0 1.86-1.81c.01-.05-.04-.1-.09-.1h-1.09Z"/><path fill="#F70A8D" d="m14.06 25.233-2.71 1.12-.66-1.61c-.41-1.01-.41-2.14.02-3.15a.36.36 0 0 1 .47-.19c1 .41 1.8 1.21 2.21 2.21l.67 1.62ZM18.23 25.334l2.71 1.12.66-1.61c.41-1.01.41-2.14-.02-3.15a.36.36 0 0 0-.47-.19c-1 .41-1.8 1.21-2.21 2.21l-.67 1.62Z"/><path fill="#FF6DC6" d="M8.634 22.256c-.122.058-.173.225-.101.381l.731 1.713c.204.47.6 1.126.936 1.44.813.792 1.799.88 2.734.508 1.017-.401 1.657-1.262 1.555-2.486-.02-.294-.193-.842-.294-1.135a9.985 9.985 0 0 0-.061-.157 9.424 9.424 0 0 1-.061-.157l-.702-1.644c-.07-.157-.223-.245-.356-.196-.894.353-1.128 1.919-.935 3.29.03.234-.213.342-.366.146-.864-1.106-2.185-2.065-3.08-1.703ZM23.366 22.356c.122.059.173.225.102.382l-.732 1.713c-.204.47-.6 1.125-.936 1.438-.813.793-1.799.881-2.734.51-1.017-.402-1.657-1.263-1.555-2.487.02-.293.193-.842.294-1.135l.061-.157.061-.157.702-1.644c.07-.156.223-.244.355-.196.895.353 1.129 1.919.936 3.29-.03.234.213.342.366.146.864-1.106 2.185-2.065 3.08-1.703Z"/><path fill="#FFF478" d="M12.78 23.159a1.166 1.166 0 0 1 1.502-.86l.591.192-.05-.597a1.166 1.166 0 1 1 2.324-.02l-.04.567.572-.213c.64-.243 1.352.132 1.533.81.17.657-.241 1.334-.912 1.456l-.521.1.44.527c.441.526.341 1.335-.22 1.73a1.162 1.162 0 0 1-1.673-.365l-.27-.425-.21.435a1.156 1.156 0 0 1-1.654.425 1.188 1.188 0 0 1-.29-1.72l.41-.535-.57-.081a1.176 1.176 0 0 1-.963-1.426Z"/><path fill="#FFB02E" d="M16.06 25a1 1 0 1 0 0-2 1 1 0 0 0 0 2Z"/><path fill="#E4B29A" d="M12.77 10.59a1.67 1.67 0 1 1-3.34 0 1.67 1.67 0 0 1 3.34 0ZM22.56 10.59a1.67 1.67 0 1 1-3.34 0 1.67 1.67 0 0 1 3.34 0Z"/><path fill="#EEBFAA" d="M15.555 3c-2.787 0-4.99 2.407-4.793 5.247l.396 5.691C11.326 15.721 12.709 17 14.389 17h3.222c1.68 0 3.063-1.28 3.231-3.062l.396-5.69C21.435 5.417 19.232 3 16.445 3h-.89Z"/><path fill="#fff" d="M12.31 10.502c.15-.61.71-1.07 1.37-1.07.69 0 1.26.49 1.39 1.14.03.14-.08.27-.23.27h-2.26c-.18 0-.32-.17-.27-.34ZM19.9 10.502c-.15-.61-.71-1.07-1.37-1.07-.69 0-1.26.49-1.39 1.14-.03.14.08.27.23.27h2.26c.18 0 .31-.16.27-.34Z"/><path fill="#7D4533" d="M12.98 10.612c0-.5.41-.91.91-.91s.9.4.9.9c0 .09-.01.17-.03.25h-1.75a.986.986 0 0 1-.03-.24ZM19.23 10.612c0-.5-.41-.91-.91-.91s-.9.4-.9.91c0 .08.01.16.03.24h1.75c.02-.08.03-.16.03-.24Z"/><path fill="#000" d="M13.89 10.082a.516.516 0 0 1 .46.76h-.92a.516.516 0 0 1 .46-.76ZM18.32 10.082a.516.516 0 0 0-.46.76h.92a.516.516 0 0 0-.46-.76Z"/><path fill="#fff" d="M13.74 10.252a.16.16 0 1 1-.32 0 .16.16 0 0 1 .32 0ZM18.2 10.252a.16.16 0 1 1-.32 0 .16.16 0 0 1 .32 0Z"/><path fill="#FFF9BA" d="m21.183 4.392-.418-.21a3.086 3.086 0 0 1-.798-.59l-.817-.84a2.212 2.212 0 0 0-2.335-.55c-.525.19-1.109.19-1.634 0-.71-.37-1.576-.22-2.15.36l-.992 1.02c-.234.24-.506.44-.808.6l-.408.21a2.015 2.015 0 0 0-1.041 2.14l.554 3.13c.059.31.321.54.623.55l-.098-1.46a.987.987 0 0 1 .312-.78l.185-.17c.253-.23.389-.56.389-.9v-.88c0-.25.165-.47.399-.53.632-.16 1.984-.44 3.852-.44 1.868 0 3.22.28 3.852.44.234.06.4.28.4.53v.88c0 .34.145.67.388.9l.195.18c.214.2.33.48.311.78l-.097 1.45a.668.668 0 0 0 .613-.55l.554-3.13a1.982 1.982 0 0 0-1.031-2.14Z"/><path fill="#A56953" d="M19.24 8.932c.11.07.22.11.34.11.17 0 .33-.07.43-.22.19-.24.14-.59-.1-.78-.03-.03-.87-.67-2.09-.52a.56.56 0 0 0 .13 1.11 1.917 1.917 0 0 1 1.29.3ZM12.19 8.822c.1.14.27.22.44.22.11 0 .23-.04.33-.11.02-.02.53-.39 1.29-.3.31.03.58-.19.62-.49a.568.568 0 0 0-.49-.62c-1.21-.14-2.06.49-2.09.52-.24.19-.29.53-.1.78Z"/><path fill="#D19479" d="m15.654 10.29-.496 1.738c-.103.356.14.722.487.722h.73c.345 0 .589-.366.486-.722l-.496-1.738c-.103-.387-.599-.387-.71 0Z"/><path fill="#990838" d="M16 13.706c-.55 0-1.07-.14-1.508-.385-.153-.085-.306.096-.214.246.367.587.999.982 1.722.982.724 0 1.356-.395 1.723-.982.092-.15-.071-.32-.214-.246a3.118 3.118 0 0 1-1.509.385Z"/><path fill="#D3D3D3" d="M8.992 7.31a.723.723 0 0 1-.455-.16.745.745 0 0 1-.129-1.05c.1-.13 2.454-3.1 7.59-3.1 5.136 0 7.49 2.97 7.59 3.1.257.33.198.8-.129 1.05a.734.734 0 0 1-1.039-.13c-.01-.02-.524-.65-1.553-1.26-1.396-.83-3.028-1.26-4.869-1.26-1.84 0-3.473.43-4.868 1.26-1.04.62-1.554 1.26-1.554 1.26a.742.742 0 0 1-.584.29Z"/></svg>
